icons/hiv_neg_fill.svg

<svg width="48" height="48" viewBox="0 0 48 48" fill="none" xmlns="http://www.w3.org/2000/svg">
<path fill-rule="evenodd" clip-rule="evenodd" d="M29.5913 4.67461C28.7899 4.21665 27.8914 4 26.9237 4H21.6761C19.8516 4 18.0073 4.84975 16.8974 6.38697C16.8603 6.43373 16.8241 6.48089 16.7886 6.52844L14.4522 9.55709L13.6409 10.639L13.6394 10.641C11.1085 13.9837 11.109 18.6379 13.6409 21.98L13.6468 21.9878L23.424 34.3903L30.0001 42.7749C30.7148 43.6861 32.0516 43.8018 32.9121 43.0268L36.9781 39.3654C37.7571 38.6639 37.8623 37.4799 37.2191 36.6521L29.789 27.0891L24.9969 21.0313L19.5739 14.0266C20.1663 13.6875 20.8665 13.5093 21.5857 13.5093H26.8333C27.4959 13.5093 28.1756 13.7018 28.7742 14.027L25.7551 17.9267L26.9658 19.4906L28.1797 21.0251C28.0634 20.7052 28 20.36 28 20C28 18.3431 29.3431 17 31 17H36.645C36.8316 14.7468 36.2097 12.4391 34.7795 10.5501L33.9666 9.46626L33.9584 9.45546L31.6269 6.43315L31.6156 6.41806L31.6279 6.40924C31.0533 5.60468 30.276 5.06587 29.5913 4.67461ZM30.0098 12.4316C31.0685 11.0296 31.076 9.05023 30.032 7.64012L29.932 7.5104L29.9466 7.49893C29.6182 7.07085 29.1501 6.726 28.599 6.4111C28.1338 6.14525 27.5847 6 26.9237 6H21.6761C20.4332 6 19.2104 6.58966 18.5089 7.57171L18.4982 7.5867L18.3831 7.73584C17.8657 8.43472 17.6094 9.25167 17.6094 10.0667C17.6094 10.8772 17.8617 11.7461 18.3445 12.4332C19.3185 11.8098 20.4633 11.5093 21.5857 11.5093H26.8333C27.9649 11.5093 29.0758 11.8619 30.0098 12.4316Z" fill="black"/>
<path d="M29.3523 22.5074L31.7592 25.5501L31.8508 25.668L33.9175 23H31C30.3914 23 29.8252 22.8188 29.3523 22.5074Z" fill="black"/>
<path d="M30 20C30 19.4477 30.4477 19 31 19H37C37.5523 19 38 19.4477 38 20C38 20.5523 37.5523 21 37 21H31C30.4477 21 30 20.5523 30 20Z" fill="black"/>
<path d="M16.5675 29.728L21.4555 35.9317L21.4603 35.9377L22.6207 37.4173L18.3652 42.8431C17.6916 43.702 16.4538 43.8621 15.5838 43.203L11.2054 39.886C10.3155 39.2119 10.1498 37.9399 10.8372 37.0603L16.5675 29.728Z" fill="black"/>
</svg>

<svg
  xmlns="http://www.w3.org/2000/svg"
  width="24"
  height="24"
  viewBox="0 0 24 24"
  fill="none"
  stroke="currentColor"
  stroke-width="2"
  stroke-linecap="round"
  stroke-linejoin="round"
>
  <path
    fill-rule="evenodd"
    d="M29.591 4.675C28.79 4.217 27.891 4 26.924 4h-5.248c-1.824 0-3.669.85-4.779 2.387l-.108.141-2.337 3.03-.811 1.081-.002.002a9.414 9.414 0 0 0 .002 11.339l.006.008 9.777 12.402L30 42.775a2 2 0 0 0 2.912.252l4.066-3.662a2 2 0 0 0 .241-2.713l-7.43-9.563-4.792-6.058-5.423-7.004a4.06 4.06 0 0 1 2.012-.518h5.247c.663 0 1.343.193 1.941.518l-3.019 3.9 1.21 1.564 1.215 1.534A3 3 0 0 1 31 17h5.645a9.4 9.4 0 0 0-1.866-6.45l-.812-1.084-.009-.01-2.331-3.023-.011-.015.012-.009c-.575-.804-1.352-1.343-2.037-1.734m.419 7.757a4.03 4.03 0 0 0 .022-4.792l-.1-.13.015-.011c-.329-.428-.797-.773-1.348-1.088C28.134 6.145 27.585 6 26.924 6h-5.248c-1.243 0-2.466.59-3.167 1.572l-.01.015-.116.149a3.9 3.9 0 0 0-.774 2.33c0 .811.253 1.68.735 2.367.974-.623 2.12-.924 3.242-.924h5.247c1.132 0 2.243.353 3.177.923"
    clip-rule="evenodd"
  />
  <path d="m29.352 22.507 2.407 3.043.092.118L33.917 23H31a3 3 0 0 1-1.648-.493" />
  <path d="M30 20a1 1 0 0 1 1-1h6a1 1 0 1 1 0 2h-6a1 1 0 0 1-1-1" />
  <path d="m16.568 29.728 4.887 6.204.005.006 1.16 1.48-4.255 5.425a2 2 0 0 1-2.781.36l-4.379-3.317a2 2 0 0 1-.368-2.826z" />
</svg>
